X:1
T:Title
%%score 1 { 2 | 3 }
L:1/8
Q:1/4=90
M:3/8
K:G
V:1 treble nm="Grand Piano, Soprano"
V:2 bass nm="Choir Pad, Irvine, Philip Bliss, 1873"
V:3 bass 
V:1
 [DB][CA][DB] | [B,G][B,D][B,G] | [DA][DB][Dc] | [DB]3 | [DB][CA][DB] | [B,G][B,D][B,G] | %6
w: By~Philip~Paul~Bliss * *||||||
 [DA][Dc][DF] | [DG]3 | [Gd]>[Ge][Gd] | [GB][Gd]G | [FA][GB][Ac] | [GB]3 | [Gd]>[Ge][Gd] | %13
w: |||||||
 [GB][Gd]G | [FA][Fc][DF] | [DG]3- | [DG]3- | [DG] z z |] %18
w: |||||
V:2
 G,G,G, | G,G,G, | F,G,A, | G,3 | G,G,G, | G,G,G, | F,A,C | B,3 | B,>CB, | G,B,B, | DDD | D3 | %12
 B,>C[K:bass]B, | G,B,B, | DA,C | B,3- | B,3- | B, z z |] %18
V:3
 z3 | z3 | D,D,D, | z3 | z3 | z3 | D,D,D, | G,,3 | G,>G,G, | z G,G, | D,D,D, | G,3 | G,>G,G, | %13
 z G,G, | D,D,D, | G,,3- | G,,3- | G,, z z |] %18

